docs/assets/icons/browser-extension.svg

<?xml version="1.0" encoding="UTF-8" standalone="no"?>
<!DOCTYPE svg PUBLIC "-//W3C//DTD SVG 1.1//EN" "http://www.w3.org/Graphics/SVG/1.1/DTD/svg11.dtd">
<svg width="100%" height="100%" viewBox="0 0 819 900" version="1.1" xmlns="http://www.w3.org/2000/svg" xmlns:xlink="http://www.w3.org/1999/xlink" xml:space="preserve" xmlns:serif="http://www.serif.com/" style="fill-rule:evenodd;clip-rule:evenodd;stroke-linejoin:round;stroke-miterlimit:2;">
    <g transform="matrix(0.986502,0,0,0.986502,-93.3921,953.688)">
        <path d="M345.33,-94.67L178.67,-94.67C156.183,-94.67 136.56,-103.047 119.8,-119.8C103.047,-136.56 94.67,-156.183 94.67,-178.67L94.67,-337.33C126.89,-339.557 154.167,-351.947 176.5,-374.5C198.833,-397.053 210,-424.443 210,-456.67C210,-488.89 198.833,-516.277 176.5,-538.83C154.167,-561.39 126.89,-573.78 94.67,-576L94.67,-736C94.67,-758.487 103.047,-778.107 119.8,-794.86C136.56,-811.62 156.183,-820 178.67,-820L343.33,-820C348.223,-849.78 361.28,-875.003 382.5,-895.67C403.72,-916.337 428.887,-926.67 458,-926.67C487.113,-926.67 512.28,-916.337 533.5,-895.67C554.72,-875.003 567.777,-849.78 572.67,-820L736,-820C758.487,-820 778.107,-811.62 794.86,-794.86C811.62,-778.107 820,-758.487 820,-736L820,-572.67C849.78,-567.777 874.67,-554.277 894.67,-532.17C914.67,-510.057 924.67,-484.443 924.67,-455.33C924.67,-426.223 914.67,-401.39 894.67,-380.83C874.67,-360.277 849.78,-347.557 820,-342.67L820,-178.67C820,-156.183 811.62,-136.56 794.86,-119.8C778.107,-103.047 758.487,-94.67 736,-94.67L568,-94.67C568.447,-131.337 557.723,-161.947 535.83,-186.5C513.943,-211.053 487.557,-223.33 456.67,-223.33C425.777,-223.33 399.387,-211.053 377.5,-186.5C355.613,-161.947 344.89,-131.337 345.33,-94.67Z" style="fill:rgb(110,115,124);fill-rule:nonzero;"/>
    </g>
    <g id="Layer">
    </g>
</svg>

<svg xmlns="http://www.w3.org/2000/svg" height="48px" viewBox="0 -960 960 960" width="48px" fill="#000000"><path d="M345.33-94.67H178.67q-33.73 0-58.87-25.13-25.13-25.14-25.13-58.87v-158.66q48.33-3.34 81.83-37.17t33.5-82.17q0-48.33-33.5-82.16Q143-572.67 94.67-576v-160q0-33.73 25.13-58.86Q144.94-820 178.67-820h164.66q7.34-44.67 39.17-75.67 31.83-31 75.5-31t75.5 31q31.83 31 39.17 75.67H736q33.73 0 58.86 25.14Q820-769.73 820-736v163.33q44.67 7.34 74.67 40.5 30 33.17 30 76.84 0 43.66-30 74.5-30 30.83-74.67 38.16v164q0 33.73-25.14 58.87Q769.73-94.67 736-94.67H568q.67-55-32.17-91.83-32.83-36.83-79.16-36.83-46.34 0-79.17 36.83t-32.17 91.83Z"/></svg>
